X: 24408
T: Lovely Nancy
R: waltz
M: 3/4
K: Gmajor
|:D2|G2 GF GB|A2 AG Ac|Bg ge dc|B2 A4|
G2 GF GB|A2 AG Ac|Bg ge dB|G4:|
|:Bc|d z d3 d|e2 d3 c|B z B3 B|B2 A3 z|
G2 GF GB|A2 AG Ac|Bg ge dB|G4:|

